resources/icons/brands/opensea-circle.svg

<svg viewBox="0 0 16 16" fill="none" xmlns="http://www.w3.org/2000/svg">
<g clip-path="url(#clip0_23535_109271)">
<path d="M16 8C16 12.418 12.418 16 8 16C3.58197 16 0 12.418 0 8C0 3.58197 3.58197 0 8 0C12.419 0 16 3.58197 16 8Z" fill="currentColor"/>
<path d="M3.94746 8.26887L3.98198 8.21463L6.0631 4.95899C6.0935 4.91131 6.16502 4.91625 6.18803 4.96802C6.53571 5.74722 6.83571 6.71627 6.69516 7.31956C6.63516 7.56777 6.47078 7.90395 6.28584 8.21463C6.262 8.25984 6.23571 8.30423 6.20776 8.34697C6.1946 8.36669 6.17242 8.3782 6.14858 8.3782H4.00828C3.95075 8.3782 3.91706 8.31573 3.94746 8.26887Z" fill="white"/>
<path d="M13.2225 8.87371V9.38905C13.2225 9.41864 13.2044 9.44495 13.1781 9.45645C13.017 9.5255 12.4655 9.77865 12.2362 10.0976C11.651 10.9121 11.2038 12.0768 10.2044 12.0768H6.03475C4.55692 12.0768 3.35938 10.8751 3.35938 9.39234V9.34466C3.35938 9.30521 3.39143 9.27316 3.43089 9.27316H5.75529C5.80131 9.27316 5.83502 9.3159 5.83091 9.36111C5.81447 9.51234 5.84241 9.66687 5.91392 9.80742C6.05201 10.0877 6.33804 10.2628 6.64709 10.2628H7.79778V9.3644H6.66023C6.60188 9.3644 6.56736 9.297 6.60106 9.24932C6.61338 9.23042 6.62736 9.21069 6.64215 9.1885C6.74983 9.03563 6.90352 8.79808 7.05641 8.52767C7.16078 8.34521 7.26188 8.1504 7.34325 7.95479C7.35969 7.91945 7.37285 7.88329 7.38599 7.84793C7.40819 7.78548 7.4312 7.72712 7.44764 7.66877C7.46407 7.61945 7.47722 7.56767 7.49038 7.51917C7.52901 7.35314 7.54546 7.17725 7.54546 6.99478C7.54546 6.92328 7.54217 6.84848 7.53559 6.77696C7.5323 6.69888 7.52243 6.6208 7.51257 6.54272C7.50599 6.47368 7.49367 6.40546 7.48051 6.33396C7.46407 6.22957 7.44106 6.12601 7.41475 6.02162L7.40572 5.98217C7.38599 5.91067 7.36956 5.84244 7.34654 5.77094C7.28162 5.54655 7.20681 5.32792 7.12791 5.12326C7.09914 5.04189 7.06626 4.96381 7.03338 4.88573C6.98489 4.76818 6.93557 4.66134 6.89038 4.56024C6.86736 4.51421 6.84762 4.47229 6.82791 4.42955C6.80572 4.38105 6.7827 4.33257 6.75969 4.28653C6.74325 4.25119 6.72434 4.21832 6.7112 4.18544L6.57065 3.92571C6.55091 3.89037 6.5838 3.84845 6.62242 3.85913L7.50188 4.0975H7.50435C7.50599 4.0975 7.50682 4.09832 7.50764 4.09832L7.62354 4.13037L7.75093 4.16653L7.79778 4.17968V3.65695C7.79778 3.40461 7.99998 3.19995 8.24985 3.19995C8.37477 3.19995 8.48819 3.2509 8.56956 3.33392C8.65093 3.41695 8.7019 3.53037 8.7019 3.65695V4.43284L8.79559 4.45913C8.803 4.4616 8.8104 4.46489 8.81698 4.46982C8.83998 4.48708 8.87285 4.51257 8.91477 4.54379C8.94766 4.5701 8.983 4.60216 9.02574 4.63503C9.1104 4.70326 9.21148 4.7912 9.32245 4.89229C9.35203 4.91778 9.38082 4.94408 9.40711 4.97039C9.55013 5.10352 9.7104 5.2597 9.86329 5.43231C9.90602 5.48079 9.94794 5.5301 9.99068 5.58189C10.0334 5.63449 10.0786 5.68628 10.1181 5.73807C10.1699 5.8071 10.2257 5.8786 10.2742 5.95341C10.2973 5.98875 10.3236 6.02491 10.3458 6.06025C10.4082 6.15478 10.4633 6.25259 10.5159 6.35039C10.5381 6.3956 10.5611 6.44491 10.5808 6.49341C10.6392 6.62409 10.6852 6.75725 10.7148 6.8904C10.7238 6.91917 10.7304 6.9504 10.7337 6.97835V6.98491C10.7436 7.02438 10.7468 7.0663 10.7501 7.10904C10.7633 7.24546 10.7567 7.38191 10.7271 7.51917C10.7148 7.57753 10.6984 7.63259 10.6786 7.69096C10.6589 7.74685 10.6392 7.80519 10.6137 7.86027C10.5644 7.97451 10.506 8.08877 10.437 8.19561C10.4148 8.23506 10.3885 8.27698 10.3622 8.31643C10.3334 8.35835 10.3038 8.39782 10.2775 8.43645C10.2414 8.48576 10.2027 8.53753 10.1633 8.58356C10.1279 8.63206 10.0918 8.68056 10.0523 8.72329C9.99726 8.78822 9.94465 8.84987 9.88958 8.90905C9.85671 8.94768 9.82137 8.98713 9.78519 9.02248C9.74985 9.06192 9.71369 9.09727 9.68081 9.13014C9.62574 9.18521 9.57971 9.22795 9.54108 9.26329L9.45066 9.34631C9.43753 9.35782 9.42026 9.3644 9.40218 9.3644H8.7019V10.2628H9.583C9.78026 10.2628 9.96766 10.1929 10.1189 10.0647C10.1707 10.0195 10.3967 9.82384 10.6638 9.52879C10.6729 9.51892 10.6844 9.51152 10.6975 9.50824L13.1313 8.80466C13.1765 8.79151 13.2225 8.82603 13.2225 8.87371Z" fill="white"/>
</g>
<defs>
<clipPath id="clip0_23535_109271">
<rect width="16" height="16" fill="white"/>
</clipPath>
</defs>
</svg>

<svg viewBox="0 0 16 16" fill="none" xmlns="http://www.w3.org/2000/svg"><g clip-path="url(#clip0_23535_109271)"><path d="M16 8A8 8 0 1 1 0 8a8 8 0 0 1 16 0Z" fill="currentColor"/><path d="m3.947 8.269.035-.054 2.081-3.256a.071.071 0 0 1 .125.009c.348.78.648 1.748.507 2.352-.06.248-.224.584-.41.895-.023.045-.05.09-.077.132a.07.07 0 0 1-.06.031h-2.14a.071.071 0 0 1-.06-.11Z" fill="white"/><path d="M13.223 8.874v.515c0 .03-.019.056-.045.067-.161.07-.713.323-.942.642-.585.814-1.032 1.979-2.032 1.979h-4.17A2.68 2.68 0 0 1 3.36 9.392v-.047c0-.04.032-.072.072-.072h2.324c.046 0 .08.043.076.088a.793.793 0 0 0 .083.446c.138.28.424.456.733.456h1.15v-.899H6.66a.073.073 0 0 1-.059-.115l.041-.06a8.29 8.29 0 0 0 .414-.661c.105-.183.206-.378.287-.573.017-.036.03-.072.043-.107.022-.063.045-.12.062-.18.016-.049.03-.1.042-.149a2.316 2.316 0 0 0 .046-.742c-.004-.078-.014-.156-.023-.234a2.426 2.426 0 0 0-.032-.209 3.518 3.518 0 0 0-.066-.312l-.01-.04c-.019-.071-.035-.14-.058-.211a7.967 7.967 0 0 0-.22-.648c-.028-.081-.06-.16-.094-.237-.048-.118-.097-.225-.143-.326a4.46 4.46 0 0 1-.062-.13 4.652 4.652 0 0 0-.068-.143c-.017-.036-.036-.069-.049-.102l-.14-.26a.046.046 0 0 1 .051-.066l.88.239h.006l.116.032.127.037.047.013v-.523c0-.252.202-.457.452-.457.125 0 .238.05.32.134a.46.46 0 0 1 .132.323v.776l.094.026a.075.075 0 0 1 .021.01l.098.075c.033.026.068.058.11.091a6.73 6.73 0 0 1 .382.335 6.774 6.774 0 0 1 .584.612c.042.052.088.104.127.156.052.07.108.14.156.215.023.036.05.072.072.107a2.262 2.262 0 0 1 .235.433 2.09 2.09 0 0 1 .153.485v.007c.01.04.013.081.016.124a1.326 1.326 0 0 1-.071.582c-.02.056-.04.114-.065.17-.05.114-.108.228-.177.335-.022.04-.048.081-.075.12l-.085.12c-.036.05-.074.102-.114.148a5.333 5.333 0 0 1-.274.325 1.702 1.702 0 0 1-.104.113c-.035.04-.071.075-.104.108a4.18 4.18 0 0 1-.14.133l-.09.083a.074.074 0 0 1-.049.018h-.7v.899h.881c.197 0 .385-.07.536-.198.052-.045.278-.241.545-.536.009-.01.02-.017.034-.02l2.433-.704a.072.072 0 0 1 .091.069Z" fill="white"/></g><defs><clipPath id="clip0_23535_109271"><rect width="16" height="16" fill="white"/></clipPath></defs></svg>
